packages/katcn/src/icons/svg/cloudStorage.svg

<svg width="24" height="25" viewBox="0 0 24 25" fill="none" xmlns="http://www.w3.org/2000/svg">
<path d="M18.156 15.776H18.3578C18.4587 15.776 18.4587 15.776 18.5596 15.776C21.0826 15.576 23 13.576 23 11.076C23 8.47601 20.8807 6.27601 18.156 6.27601C17.9541 6.27601 17.7523 6.27601 17.6514 6.27601C16.5413 4.27601 14.422 2.97601 12 2.97601C9.6789 2.97601 7.45872 4.27601 6.34862 6.27601C6.14679 6.27601 5.94495 6.27601 5.84404 6.27601C3.11927 6.17601 1 8.37601 1 10.976C1 13.476 3.01835 15.576 5.44037 15.676C5.54128 15.676 5.54128 15.676 5.6422 15.676H5.84404H7.3578V19.076H4.73395C4.12844 19.076 3.72477 19.476 3.72477 20.076C3.72477 20.676 4.12844 21.076 4.73395 21.076H8.36697C8.97248 21.076 9.37615 20.676 9.37615 20.076V14.676C9.37615 14.076 8.97248 13.676 8.36697 13.676H5.84404C4.22936 13.776 3.01835 12.576 3.01835 10.976C3.01835 9.47601 4.22936 8.17601 5.84404 8.17601C6.14679 8.17601 6.44954 8.17601 6.65138 8.27601C7.15596 8.47601 7.66055 8.17601 7.86239 7.67601C8.56881 6.07601 10.1835 4.97601 12 4.97601C13.8165 4.97601 15.4312 6.07601 16.1376 7.77601C16.3394 8.27601 16.844 8.47601 17.3486 8.37601C17.6514 8.27601 17.8532 8.27601 18.156 8.27601C19.6697 8.27601 20.9817 9.47601 20.9817 11.076C20.9817 12.576 19.7706 13.876 18.156 13.876H12C11.3945 13.876 10.9908 14.276 10.9908 14.876V21.976C10.9908 22.576 11.3945 22.976 12 22.976C12.6055 22.976 13.0092 22.576 13.0092 21.976V15.776H14.6239V20.176C14.6239 20.776 15.0275 21.176 15.633 21.176H19.2661C19.8716 21.176 20.2752 20.776 20.2752 20.176C20.2752 19.576 19.8716 19.176 19.2661 19.176H16.6422V15.776H18.156Z" fill="black"/>
</svg>

<svg xmlns="http://www.w3.org/2000/svg" fill="none" viewBox="0 0 24 25"><path fill="#000" d="M18.156 15.776h.404c2.523-.2 4.44-2.2 4.44-4.7 0-2.6-2.12-4.8-4.844-4.8h-.505c-1.11-2-3.229-3.3-5.651-3.3-2.321 0-4.541 1.3-5.651 3.3h-.505C3.119 6.176 1 8.376 1 10.976c0 2.5 2.018 4.6 4.44 4.7h1.918v3.4H4.734c-.606 0-1.01.4-1.01 1s.404 1 1.01 1h3.633c.605 0 1.01-.4 1.01-1v-5.4c0-.6-.405-1-1.01-1H5.844c-1.615.1-2.826-1.1-2.826-2.7 0-1.5 1.211-2.8 2.826-2.8.303 0 .606 0 .807.1.505.2 1.01-.1 1.211-.6A4.55 4.55 0 0 1 12 4.976c1.816 0 3.431 1.1 4.138 2.8.201.5.706.7 1.21.6.303-.1.505-.1.808-.1 1.514 0 2.826 1.2 2.826 2.8 0 1.5-1.211 2.8-2.826 2.8H12c-.605 0-1.01.4-1.01 1v7.1c0 .6.405 1 1.01 1s1.01-.4 1.01-1v-6.2h1.614v4.4c0 .6.403 1 1.009 1h3.633c.606 0 1.01-.4 1.01-1s-.404-1-1.01-1h-2.624v-3.4z"/></svg>
